X:2823
T:Gavotte Suite
T:Gavotte 1-6/Gilotte
T:Terpsichore no. 1
C:anon., arr. Francisque Caroubel
O:France
B:Michael Praetorius: Terpsichore (1612) no. 1
R:Gavotte
Z:Transcribed by Frank Nordberg - http://www.musicaviva.com
F:http://abc.musicaviva.com/tunes/france/terpsichore-001/terpsichore-001-5m.abc
V:1 Program 1 110 %Fiddle
V:2 Program 1 42 %Cello
V:3 Program 1 43 alto %Double bass
V:4 Program 1 40 alto %Violin
V:5 Program 1 41 bass %Viola
M:C|
L:1/4
Q:1/4=205
K:Gmix
V:1
"^Gavotte 1"cB AB|G>A BG|cB Ad|G2 G2::GA Bc|d2 d2|e/^f/g fe|d2 d2:|
V:2
K:Gmix
GG ^FG|D2 GE|E/^F/G ^FG|D2 D2::G^F GG|A2 B2|BG AA|^F2 F2:|
V:3
K:Gmix
ED D2|B,>C DC|CD DB,|B,2 B,2::DD DE|^F2 GD|EB, D^C|D2 D2:|
V:4
K:Gmix
G,G, A,G,|G,2 G,G,|C,G, A,G,|G,2 G,2::B,A, G,G,|D>C B,>A,|G,E, A,A,|A,2 A,2:|
V:5
K:Gmix
C,G,, D,G,,|G,,2 G,,C,|A,,G,, D,G,,|G,,2 G,,2::G,D, G,E,|D,2 G,>^F,|E,E, D,A,,|D,2 D,2:|
%
V:1
M:C|
"^Gavotte 2"d2 ec|d>c BG|d2 ec|d/c/B/A/ G2::A/B/c BG|A2 BG|A/B/c BG|A2 G2:|
V:2
M:C|
G2 GG|^F2 GD|G2 GG|^FG D2::^FG G2|^F2 GD|^FG G2|^F2 G2:|
V:3
M:C|
D2 CG,|D2 DB,|B,2 CG,|DD/C/ B,2::DG,/A,/ B,B,|D2 D2|DG,/A,/ B,B,|D2 D2:|
V:4
M:C|
B,>A, G,G,|A,2 G,2|G,2 G,2|A,G, G,>B,::A,E DE|A,2 G,B,|A,E DE|A,2 B,2:|
V:5
M:C|
G,2 C,E,|D,2 G,,2|G,,2 C,E,|D,G,, G,,2::D,C, G,E,|D,2 G,,2|D,C, G,E,|D,2 G,,2:|
%
V:1
M:C|
K:G
"^Gavotte 3"GA BB|cA BB|GA Bd|c2 B2::d2 d2|d/c/B/A/ BG|d2 d2|d/c/B/A/ G2:|
V:2
M:C|
K:G
GF GG|GF G2|GF GG|E/D/E/F/ G2::G2 G2|FG GD|G2 G2|FG D2:|
V:3
M:C|
K:G
DD D2|ED D2|DD DB,|C2 D2::D2 D2|DD D2|D2 D2|DD B,2:|
V:4
M:C|
K:G
B,A, G,G,|E,A, G,2|B,A, G,G,|G,2 G,2::B,2 B,2|A,B, B,2|B,2 B,2|A,G, G,2:|
V:5
M:C|
K:G
G,,D, G,,G,,|C,D, G,,G,,|G,,D, G,,G,,|C,2 G,,2::G,2 G,2|D,G, G,2|G,2 G,,2|D,G,, G,,2:|
%
V:1
M:C|
"^Gavotte 4"d2 dd|e/d/e/f/ e/f/g|fe dc|[1B2 B2:|[2B3|:d|cB AG|B/A/B/c/ Bd|cB AG|[1B3:|[2B2B||
V:2
M:C|
G>A BB|c2 cd|dB BG|[1G2 G2:|[2G3|:G|GG FG|G3G|GG FG|[1G3:|[2G2G||
V:3
M:C|
D2 GG|G3G|AG FE|[1D2 D2:|[2D3|:D|ED DD|D3D|ED DD|[1D3:|[2D2 D||
V:4
M:C|
B,>C DD|C2 CB,|DG, DG,|[1G,2 G,2:|[2G,3|:B,|G,G, A,B,|G,3B,|G,G, A,B,|[1G,3:|[2G,2 G,||
V:5
M:C|
G,,2 G,,G,,|C,3G,,|D,E, B,,C,|[1G,,2 G,,2:|[2G,,3|:G,|C,G,, D,G,,|G,,3G,|C,G,, D,G,,|[1G,,3:|[2G,,2G,,||
%
V:1
M:C|
K:Gmix
"^Gavotte 5"g|gf ec|c2 Ag/f/|ed d^c|d3g|gf ed|c2 Ag/f/|ed d^c|
V:2
M:C|
K:Gmix
B|Bc/d/ cA|A2 cd|cA AA|A3B|Bc/d/ cA|A2 cd|cA _BA|
V:3
M:C|
K:Gmix
D|D2 EA,|E3G|GF EE|^F3D|D2 EA,|E3D|EF GE|
V:4
M:C|
K:Gmix
G,|G,3F,|A,2 A,D|EA, A,A,|A,3G,|G,3F,|A,2 E,G,|G,D DA,|
V:5
M:C|
K:Gmix
G,,|G,,A,,/B,,/ C,D,|A,,3B,,|C,D, A,,A,,|D,3G,,|G,,A,,/B,,/ C,D,|A,,3B,,|C,D, G,,A,,|
%
V:1
d3::_B/c/|dc de|f>e|dd cA B/A/B/c/|dg ^f/g/a/^f/|[1g3:|[2g4||
V:2
A3::G/A/ _BA Bc|dA2_B|G^F G2|FE Dd|[1B3:|[2B4||
V:3
^F3::D|GE GG|F3F|ED D2|_B,G, D/E/^F/D/|[1D3:|[2D4||
V:4
A,3::_B,|_B,C B,G,|A,3D|G,D,2G,|DC A,2|[1G,3:|[2G,4||
V:5
D,3::G,|G,A, G,E,|D,3_B,,|C,D, G,,>A,,|_B,,C, D,2[1G,,3:|[2G,,4||
%
V:1
M:C|
"^Gavotte 6"B/c/d/e/ dc|B>c BG|A/G/A/B/ A/B/c/d/|BA/B/ G2::B>A G/A/B/G/|A2 AG/A/|B/c/d/e/ cB|A2 A2|
V:2
M:C|
G3G|G3G|^F3F|GGD2::G2 GG|^F2 F2|G2 GG|^F2 F2|
V:3
M:C|
DB,2E|D3E|A,D D2|D2 B,2::D2 ED|D2 D2|D2 ED|D2 D2|
V:4
M:C|
G,3 G,|G,>A, B,B,|DA,2A,|G,2 G,2::B,2 CB,|A,2 A,2|G,2 G,G,|A,2 A,2|
V:5
M:C|
G,,3 C,|G,3E,|D,2 D,2|G,,2 G,,2::G,2 E,G,|D,2 D,2|G,,/A,,/B,, C,G,,|D,2 D,2|
%
V:1
B/A/B/c/ B/c/d|BA/G/ AG/A/|BA/G/ ^F2|G2G2:|B/A/B/c/ B/c/d|BA/G/ AG/A/|BA/G/ ^F2|G2G2||
V:2
G>E GA|G2 ^FG-|GE D2|D2 D2:|G>E GA|G2^FG-|GE D2|D2 D2||
V:3
D>C DD|DE A,E-|E/D/C/B,/ A,D|B,2 B,2:|D>C DD|DE A,E-|E/D/C/B,/ A,D|B,2B,2||
V:4
B,>A, B,A,|B,2 DG,|G,A,/E,/ A,2|G,2 G,2::B,>A, B,A,|B,2 DG,|G,A,/E,/ A,2|G,2 G,2||
V:5
G,>A, G,^F,|G,E, D,E,/^F,/|G,C, D,2|G,,2 G,,2::G,>A, G,^F,|G,E, D,E,/^F,/|G,C, D,2|G,,2G,,2||
%
V:1
M:C|
"^Gilotte"B/c/d dc|B>A G2|A/G/A/B/ A/B/c/A/|B2G2::BA/B/ c/B/A/G/|A2 A2|
V:2
M:C|
G/A/B BG|G2 E2|FE E/D/E/^F/|G2 D2::G>F EE|^F2 F2|
V:3
M:C|
DG GE|D2 G,C|C2 C2|D2 B,2::DD C/D/E|D4|
V:4
M:C|
G,2 G,G,/A,/|B,2 E,E,|A,2 A,2|D,2 G,2::G,B, E,A,|A,4|
V:5
M:C|
G,,2 G,,C,|G,,2 C,2|A,,2 A,,2|G,,2 G,,2|G,,2 A,,2|D,4|
%
V:1
B/c/d cB|A2 A2|B/A/B/c/ B/c/d|G2 A2|BA G^F|G2 G2:|G8|]
V:2
G/A/B GG|^F2 F2|G2 GG|E2 EE/^F/|GE D2|B,2 B,2:|B,8|]
V:3
D2 ED|D4|D2 D2|C2 C2|DC A,2|G2 G,2:|G,8|]
V:4
G,2G,2|A,4|G,>A, B,2|E,2 A,2|D,E, A,D|D2 D2:|D8|]
V:5
G,,2 C,G,,|D,4|G,,2 G,,2|C,2 A,,2|G,,C, D,2|G,,2G,,2:|G,,8|]
W:
W:
W:  From Musica Viva - http://www.musicaviva.com
W:  the Internet center for free sheet music downloads.
